X: 4186
T: Blue Ribbon, The
R: polka
M: 2/4
K: Amixolydian
A/B/|:c/d/ ed c/d/ ea B/c/c/d/|ea a/g/e/d/ cAB A/B/|c/d/ ed c/d/ ea B/c/c/d/|
ea a/g/e/d/ cA A2:|aa g/f/e/f/ aed c/d/|ea a/g/e/d/ cABA|
|:aa g/f/e/f/ aed c/d/|ecAF G4|aa g/f/e/f/ aee c/d/|
ea a/g/e/d/ cAB A/B/|c/d/ ed c/d/ ea B/c/c/d/|ea a/g/e/d/ cA A2:|

